src/images_karasa_jaga_svg/cmd/lc_crookslant.svg

<svg height="24" width="24" xmlns="http://www.w3.org/2000/svg" xmlns:xlink="http://www.w3.org/1999/xlink"><linearGradient id="a"><stop offset="0" stop-color="#0968ef"/><stop offset="1" stop-color="#aecffc"/></linearGradient><linearGradient id="b"><stop offset="0" stop-color="#fff"/><stop offset="1" stop-color="#fff" stop-opacity="0"/></linearGradient><linearGradient id="c" gradientTransform="matrix(2.2115662 -.04123813 -.04123817 2.2591837 -31.837642 -67.624458)" gradientUnits="userSpaceOnUse" x1="68.302673" x2="68.302673" xlink:href="#b" y1="30.528692" y2="85.07811"/><linearGradient id="d" gradientTransform="matrix(.88731106 0 0 1.2261852 -40.905799 -11.618961)" gradientUnits="userSpaceOnUse" x1="102.31124" x2="74.330322" xlink:href="#b" y1="-5.830213" y2="32"/><linearGradient id="e" gradientTransform="matrix(.59245361 0 0 .76480615 -73.477856 -10.747966)" gradientUnits="userSpaceOnUse" x1="29.500801" x2="103.76822" y1="29.743441" y2="97.734528"><stop offset="0" stop-color="#fff"/><stop offset=".42597079" stop-color="#fff"/><stop offset=".5892781" stop-color="#f1f1f1"/><stop offset=".80219781" stop-color="#eaeaea"/><stop offset="1" stop-color="#dfdfdf"/></linearGradient><linearGradient id="f" gradientTransform="matrix(.07291481 0 0 .10813251 -78.254027 -54.755844)" gradientUnits="userSpaceOnUse" x1="399.77466" x2="399.77466" y1="1164.6696" y2="549.06134"><stop offset="0" stop-color="#b4b4b6"/><stop offset=".5" stop-color="#9c9ca1"/><stop offset="1" stop-color="#cdcdd1"/></linearGradient><linearGradient id="g" gradientTransform="matrix(.62351671 .59545422 .59545422 -.62351671 -42.057927 59.769481)" gradientUnits="userSpaceOnUse" x1="113.15723" x2="39.268185" xlink:href="#a" y1="25.786163" y2="25.786163"/><linearGradient id="h" gradientUnits="userSpaceOnUse" x1="58.181641" x2="104.7258" y1="90.194336" y2="64.0009"><stop offset="0" stop-color="#c7cdd7"/><stop offset="1" stop-color="#fff"/></linearGradient><linearGradient id="i" gradientUnits="userSpaceOnUse" x1="52.345703" x2="145.87021" xlink:href="#a" y1="75.651756" y2="15.775862"/><g transform="matrix(.171875 0 0 .171875 1 .99969)"><rect fill="url(#f)" height="64" rx="2.144051" ry="2.301303" transform="rotate(-90)" width="64" x="-64"/><g fill-rule="evenodd"><rect fill="url(#e)" height="52.3629" rx="1.066416" ry="1.24281" transform="rotate(-90)" width="52.3629" x="-58.1828" y="5.8181"/><path d="m40.716944 5.8199c-9.479645 11.560575-18.799718 26.244739-24.33572 41.418025h24.151496c1.352678-14.52659 6.009145-29.829538 11.83018-41.418025z" fill="url(#d)"/><path d="m49.436804 113.76553-26.873487-1.82057-.111541-4.84521 12.023076-2.8541c-23.352054-22.30105-17.635176-41.413425-5.763822-54.450926l4.995192 5.070294c-8.709479 10.761859-15.063098 24.724071 5.532263 44.392504l2.177947-12.016193 4.965056-.237033z" fill="url(#g)"/></g><path d="m121.93359 23.267578a5.8355654 5.8355654 0 0 0 -5.58984 5.824219v2.681641c-.43342 2.526985-2.84529 7.713577-6.82422 13.265624-4.04386 5.642639-9.51654 11.82823-15.382811 17.433594-5.866268 5.605364-12.15118 10.64789-17.683594 14.089844s-10.507293 4.929873-12.085937 4.830078a5.8355654 5.8355654 0 0 0 -.337891-.0098c-1.426706-.007078-2.846598-.190725-4.228516-.544887a5.8355654 5.8355654 0 0 0 -1.513672-.181641c-.03303.000362-.103144-.000157-.214843.002a5.8355654 5.8355654 0 0 0 -5.726563 5.833985v35.417975a5.8355654 5.8355654 0 0 0 5.296875 5.81054c2.071474.19213 4.413019.29014 6.242188.31836a5.8355654 5.8355654 0 0 0 .08984.002c35.299184-.0002 64.040894-28.74193 64.041014-64.04111.00009-1.554334.24211-3.694887-.0293-6.398438l.0293.582032v-25.628906c.17152-1.457518.2336-2.991087-.13281-4.691407a5.8355654 5.8355654 0 0 0 -5.94922-4.595703z" fill="url(#i)"/><path d="m122.1801 29.0923c3.20608 14.877572-40.882986 59.217939-58.1801 58.124497-1.905494-.0095-3.802575-.253499-5.648438-.726563-.05725.000628-.113538.000935-.169921.002v35.417976c1.836667.17035 4.110623.26896 5.792968.29492 32.145735-.0001 58.205381-26.058494 58.205491-58.20423.00011-1.942443.19402-3.885322 0-5.818054z" fill="url(#h)"/><path d="m122.17969 36.054688c-.61391.772276-1.24628 1.558171-1.90625 2.363281-6.55381 14.369328-27.436146 35.738577-43.404299 44.660156-1.009376.779085-1.851482 1.36255-2.439453 1.658203-.563177.50051-1.128667 1.009684-1.679688 1.47461 4.123866.151257 12.310921.198344 16.558594.11914 7.663943-.142904 20.739126-.691586 28.324216-1.554687.21469-.577033.86962-1.595341 1.70313-2.794922 1.83844-5.663926 2.84373-11.70369 2.84375-17.980469.00011-1.942443.19402-3.883674 0-5.816406z" fill="url(#c)" opacity=".574257"/></g></svg>

<?xml version="1.0" encoding="UTF-8" standalone="no"?>
<!-- Created with Inkscape (http://www.inkscape.org/) -->

<svg
   xmlns:dc="http://purl.org/dc/elements/1.1/"
   xmlns:cc="http://creativecommons.org/ns#"
   xmlns:rdf="http://www.w3.org/1999/02/22-rdf-syntax-ns#"
   xmlns:svg="http://www.w3.org/2000/svg"
   xmlns="http://www.w3.org/2000/svg"
   xmlns:xlink="http://www.w3.org/1999/xlink"
   xmlns:sodipodi="http://sodipodi.sourceforge.net/DTD/sodipodi-0.dtd"
   xmlns:inkscape="http://www.inkscape.org/namespaces/inkscape"
   width="128"
   height="128"
   id="svg2"
   sodipodi:version="0.32"
   inkscape:version="0.92.3 (unknown)"
   version="1.0"
   sodipodi:docname="lc_crookslant.svg"
   inkscape:output_extension="org.inkscape.output.svgz.inkscape"
   inkscape:export-filename="/home/rizmut/Dokumen/Rizmut/Github/libreoffice-style-karasa-jaga/build/images_karasa_jaga/cmd/lc_crookslant.png"
   inkscape:export-xdpi="16.5"
   inkscape:export-ydpi="16.5">
  <defs
     id="defs4">
    <inkscape:perspective
       sodipodi:type="inkscape:persp3d"
       inkscape:vp_x="0 : 64 : 1"
       inkscape:vp_y="0 : 1000 : 0"
       inkscape:vp_z="128 : 64 : 1"
       inkscape:persp3d-origin="64 : 42.666667 : 1"
       id="perspective46" />
    <linearGradient
       id="linearGradient2399">
      <stop
         id="stop2401"
         offset="0"
         style="stop-color:#0968ef;stop-opacity:1;" />
      <stop
         id="stop2403"
         offset="1"
         style="stop-color:#aecffc;stop-opacity:1;" />
    </linearGradient>
    <linearGradient
       id="linearGradient2431">
      <stop
         style="stop-color:#ffffff;stop-opacity:1;"
         offset="0"
         id="stop2433" />
      <stop
         id="stop2435"
         offset="0.42597079"
         style="stop-color:#ffffff;stop-opacity:1;" />
      <stop
         id="stop2437"
         offset="0.5892781"
         style="stop-color:#f1f1f1;stop-opacity:1;" />
      <stop
         style="stop-color:#eaeaea;stop-opacity:1;"
         offset="0.80219781"
         id="stop2439" />
      <stop
         style="stop-color:#dfdfdf;stop-opacity:1;"
         offset="1"
         id="stop2441" />
    </linearGradient>
    <linearGradient
       id="linearGradient7422">
      <stop
         style="stop-color:#b4b4b6;stop-opacity:1;"
         offset="0"
         id="stop7424" />
      <stop
         id="stop5348"
         offset="0.5"
         style="stop-color:#9c9ca1;stop-opacity:1;" />
      <stop
         id="stop7426"
         offset="1"
         style="stop-color:#cdcdd1;stop-opacity:1;" />
    </linearGradient>
    <linearGradient
       id="linearGradient3310"
       inkscape:collect="always">
      <stop
         id="stop3312"
         offset="0"
         style="stop-color:#ffffff;stop-opacity:1;" />
      <stop
         id="stop3314"
         offset="1"
         style="stop-color:#ffffff;stop-opacity:0;" />
    </linearGradient>
    <linearGradient
       id="linearGradient3314"
       inkscape:collect="always">
      <stop
         id="stop3316"
         offset="0"
         style="stop-color:#ffffff;stop-opacity:1;" />
      <stop
         id="stop3318"
         offset="1"
         style="stop-color:#ffffff;stop-opacity:0;" />
    </linearGradient>
    <linearGradient
       id="linearGradient3323">
      <stop
         style="stop-color:#c7cdd7;stop-opacity:1;"
         offset="0"
         id="stop3325" />
      <stop
         style="stop-color:#ffffff;stop-opacity:1;"
         offset="1"
         id="stop3327" />
    </linearGradient>
    <linearGradient
       inkscape:collect="always"
       xlink:href="#linearGradient2399"
       id="linearGradient2201"
       gradientUnits="userSpaceOnUse"
       gradientTransform="matrix(0.14127989,-0.66444142,0.66444142,0.14127989,-18.819718,130.2539)"
       x1="113.15723"
       y1="25.786163"
       x2="39.268185"
       y2="25.786163" />
    <linearGradient
       inkscape:collect="always"
       xlink:href="#linearGradient3314"
       id="linearGradient2204"
       gradientUnits="userSpaceOnUse"
       gradientTransform="matrix(1.5275638,-2.6458181,2.2162152,1.280019,-187.60223,-4.8954894)"
       x1="20"
       y1="78.165009"
       x2="20"
       y2="109.84906" />
    <linearGradient
       inkscape:collect="always"
       xlink:href="#linearGradient3323"
       id="linearGradient2207"
       gradientUnits="userSpaceOnUse"
       gradientTransform="matrix(0.7637819,0,0,0.8888892,-77.368144,35.414217)"
       x1="80.34671"
       y1="17.268518"
       x2="73.462685"
       y2="107.95493" />
    <linearGradient
       inkscape:collect="always"
       xlink:href="#linearGradient3310"
       id="linearGradient2211"
       gradientUnits="userSpaceOnUse"
       gradientTransform="matrix(0.94898505,0,0,1.3114132,-43.287562,7.0173895)"
       x1="102.31124"
       y1="-5.8302126"
       x2="74.330322"
       y2="32" />
    <linearGradient
       inkscape:collect="always"
       xlink:href="#linearGradient2431"
       id="linearGradient2214"
       gradientUnits="userSpaceOnUse"
       gradientTransform="matrix(0.70833339,0,0,0.888889,-103.33333,-12.901465)"
       x1="42.728634"
       y1="99.999985"
       x2="124.09152"
       y2="27.999992" />
    <linearGradient
       inkscape:collect="always"
       xlink:href="#linearGradient7422"
       id="linearGradient2217"
       gradientUnits="userSpaceOnUse"
       gradientTransform="matrix(0.08948859,0,0,0.1301193,-110.22302,-67.516115)"
       x1="399.77466"
       y1="1164.6696"
       x2="399.77466"
       y2="549.06134" />
    <linearGradient
       inkscape:collect="always"
       xlink:href="#linearGradient2399"
       id="linearGradient2221"
       gradientUnits="userSpaceOnUse"
       gradientTransform="matrix(-0.13313305,0.62612671,-0.62612671,-0.13313305,145.6909,8.214993)"
       x1="113.15723"
       y1="25.786163"
       x2="39.268185"
       y2="25.786163" />
    <linearGradient
       inkscape:collect="always"
       xlink:href="#linearGradient2399"
       id="linearGradient3612"
       x1="-69.147636"
       y1="92.303108"
       x2="8.4692287"
       y2="55.123131"
       gradientUnits="userSpaceOnUse"
       gradientTransform="matrix(0.8820543,0,0,0.94818453,-5.4400014,6.7463582)" />
    <linearGradient
       inkscape:collect="always"
       xlink:href="#linearGradient3323"
       id="linearGradient3614"
       gradientUnits="userSpaceOnUse"
       gradientTransform="matrix(0.67369711,0,0,0.84283104,-73.682904,40.325571)"
       x1="28.42202"
       y1="58.674355"
       x2="127.80429"
       y2="35.79192" />
    <linearGradient
       inkscape:collect="always"
       xlink:href="#linearGradient3323"
       id="linearGradient3616"
       gradientUnits="userSpaceOnUse"
       gradientTransform="matrix(0.67013598,0,0,0.83333345,-73.625866,40.933415)"
       x1="80.34671"
       y1="17.268518"
       x2="73.462685"
       y2="107.95493" />
    <linearGradient
       inkscape:collect="always"
       xlink:href="#linearGradient3310"
       id="linearGradient3629"
       x1="68.302673"
       y1="30.528692"
       x2="68.302673"
       y2="85.07811"
       gradientUnits="userSpaceOnUse" />
    <linearGradient
       inkscape:collect="always"
       xlink:href="#linearGradient7422"
       id="linearGradient3722"
       gradientUnits="userSpaceOnUse"
       gradientTransform="matrix(0.08948859,0,0,0.1301193,-110.22302,-67.516115)"
       x1="399.77466"
       y1="1164.6696"
       x2="399.77466"
       y2="549.06134" />
    <linearGradient
       inkscape:collect="always"
       xlink:href="#linearGradient2431"
       id="linearGradient3724"
       gradientUnits="userSpaceOnUse"
       gradientTransform="matrix(0.70833339,0,0,0.888889,-103.33333,-12.901465)"
       x1="42.728634"
       y1="99.999985"
       x2="124.09152"
       y2="27.999992" />
    <linearGradient
       inkscape:collect="always"
       xlink:href="#linearGradient3310"
       id="linearGradient3726"
       gradientUnits="userSpaceOnUse"
       gradientTransform="matrix(0.94898505,0,0,1.3114132,-43.287562,7.0173895)"
       x1="102.31124"
       y1="-5.8302126"
       x2="74.330322"
       y2="32" />
    <linearGradient
       inkscape:collect="always"
       xlink:href="#linearGradient3323"
       id="linearGradient3728"
       gradientUnits="userSpaceOnUse"
       gradientTransform="matrix(0.67369711,0,0,0.84283104,-73.682904,40.325571)"
       x1="28.42202"
       y1="58.674355"
       x2="127.80429"
       y2="35.79192" />
    <linearGradient
       inkscape:collect="always"
       xlink:href="#linearGradient2399"
       id="linearGradient3730"
       gradientUnits="userSpaceOnUse"
       gradientTransform="matrix(0.8820543,0,0,0.94818453,-5.4400014,6.7463582)"
       x1="-69.147636"
       y1="92.303108"
       x2="8.4692287"
       y2="55.123131" />
    <linearGradient
       inkscape:collect="always"
       xlink:href="#linearGradient2399"
       id="linearGradient3732"
       gradientUnits="userSpaceOnUse"
       gradientTransform="matrix(0.14127989,-0.66444142,0.66444142,0.14127989,-18.819718,130.2539)"
       x1="113.15723"
       y1="25.786163"
       x2="39.268185"
       y2="25.786163" />
    <linearGradient
       inkscape:collect="always"
       xlink:href="#linearGradient2399"
       id="linearGradient3734"
       gradientUnits="userSpaceOnUse"
       gradientTransform="matrix(-0.13313305,0.62612671,-0.62612671,-0.13313305,145.6909,8.214993)"
       x1="113.15723"
       y1="25.786163"
       x2="39.268185"
       y2="25.786163" />
    <linearGradient
       inkscape:collect="always"
       xlink:href="#linearGradient3310"
       id="linearGradient3736"
       gradientUnits="userSpaceOnUse"
       x1="68.302673"
       y1="30.528692"
       x2="68.302673"
       y2="85.07811" />
    <linearGradient
       inkscape:collect="always"
       xlink:href="#linearGradient3310"
       id="linearGradient3739"
       gradientUnits="userSpaceOnUse"
       x1="68.302673"
       y1="30.528692"
       x2="68.302673"
       y2="85.07811"
       gradientTransform="matrix(2.2115662,-0.04123813,-0.04123817,2.2591837,-31.837642,-67.624458)" />
    <linearGradient
       inkscape:collect="always"
       xlink:href="#linearGradient2399"
       id="linearGradient3742"
       gradientUnits="userSpaceOnUse"
       gradientTransform="matrix(-0.0971347,0.45682595,-0.45682595,-0.0971347,136.72685,21.046678)"
       x1="113.15723"
       y1="25.786163"
       x2="39.268185"
       y2="25.786163" />
    <linearGradient
       inkscape:collect="always"
       xlink:href="#linearGradient3310"
       id="linearGradient3756"
       gradientUnits="userSpaceOnUse"
       gradientTransform="matrix(0.88731106,0,0,1.2261852,-40.905799,-11.618961)"
       x1="102.31124"
       y1="-5.8302126"
       x2="74.330322"
       y2="32" />
    <linearGradient
       inkscape:collect="always"
       xlink:href="#linearGradient2431"
       id="linearGradient3759"
       gradientUnits="userSpaceOnUse"
       gradientTransform="matrix(0.59245361,0,0,0.76480615,-73.477856,-10.747966)"
       x1="29.500801"
       y1="29.743441"
       x2="103.76822"
       y2="97.734528" />
    <linearGradient
       inkscape:collect="always"
       xlink:href="#linearGradient7422"
       id="linearGradient3762"
       gradientUnits="userSpaceOnUse"
       gradientTransform="matrix(0.07291481,0,0,0.10813251,-78.254027,-54.755844)"
       x1="399.77466"
       y1="1164.6696"
       x2="399.77466"
       y2="549.06134" />
    <linearGradient
       inkscape:collect="always"
       xlink:href="#linearGradient2399"
       id="linearGradient936"
       x1="7.3417306"
       y1="83.848755"
       x2="0"
       y2="40"
       gradientUnits="userSpaceOnUse"
       gradientTransform="rotate(-11.533469,28.300052,83.848753)" />
    <linearGradient
       inkscape:collect="always"
       xlink:href="#linearGradient3323"
       id="linearGradient986"
       x1="58.181641"
       y1="90.194336"
       x2="104.7258"
       y2="64.0009"
       gradientUnits="userSpaceOnUse" />
    <linearGradient
       inkscape:collect="always"
       xlink:href="#linearGradient2399"
       id="linearGradient3661"
       gradientUnits="userSpaceOnUse"
       gradientTransform="matrix(0.62351671,0.59545422,0.59545422,-0.62351671,-42.057927,59.769481)"
       x1="113.15723"
       y1="25.786163"
       x2="39.268185"
       y2="25.786163" />
    <linearGradient
       inkscape:collect="always"
       xlink:href="#linearGradient3323"
       id="linearGradient1184"
       gradientUnits="userSpaceOnUse"
       x1="58.181641"
       y1="90.194336"
       x2="104.7258"
       y2="64.0009" />
    <linearGradient
       inkscape:collect="always"
       xlink:href="#linearGradient2399"
       id="linearGradient1205"
       x1="52.345703"
       y1="75.651756"
       x2="145.87021"
       y2="15.775862"
       gradientUnits="userSpaceOnUse" />
  </defs>
  <sodipodi:namedview
     id="base"
     pagecolor="#ffffff"
     bordercolor="#666666"
     borderopacity="1.0"
     gridtolerance="10000"
     guidetolerance="10"
     objecttolerance="10"
     inkscape:pageopacity="0.0"
     inkscape:pageshadow="2"
     inkscape:zoom="1.6367188"
     inkscape:cx="73.385896"
     inkscape:cy="86.201295"
     inkscape:document-units="px"
     inkscape:current-layer="layer1"
     width="128px"
     height="128px"
     showgrid="true"
     showborder="true"
     inkscape:window-width="1366"
     inkscape:window-height="657"
     inkscape:window-x="0"
     inkscape:window-y="30"
     inkscape:snap-nodes="true"
     inkscape:snap-bbox="true"
     inkscape:snap-page="false"
     inkscape:window-maximized="1"
     inkscape:snap-global="false"
     inkscape:snap-smooth-nodes="false"
     inkscape:snap-grids="true"
     inkscape:object-nodes="true">
    <inkscape:grid
       id="GridFromPre046Settings"
       type="xygrid"
       originx="0"
       originy="0"
       spacingx="5.8181"
       spacingy="5.8181"
       color="#0000ff"
       empcolor="#0000ff"
       opacity="0.2"
       empopacity="0.4"
       empspacing="1"
       visible="true"
       enabled="true" />
  </sodipodi:namedview>
  <metadata
     id="metadata7">
    <rdf:RDF>
      <cc:Work
         rdf:about="">
        <dc:format>image/svg+xml</dc:format>
        <dc:type
           rdf:resource="http://purl.org/dc/dcmitype/StillImage" />
        <dc:title></dc:title>
      </cc:Work>
    </rdf:RDF>
  </metadata>
  <g
     inkscape:label="Layer 1"
     inkscape:groupmode="layer"
     id="layer1">
    <g
       id="g1307">
      <g
         id="g1561">
        <rect
           transform="rotate(-90)"
           rx="2.1440511"
           ry="2.3013027"
           inkscape:r_cy="true"
           inkscape:r_cx="true"
           y="3.9188699e-15"
           x="-64"
           height="64"
           width="64"
           id="rect3281"
           style="opacity:1;fill:url(#linearGradient3762);fill-opacity:1;fill-rule:nonzero;stroke:none"
           inkscape:export-filename="/home/pinheiro/Desktop/mock2.png"
           inkscape:export-xdpi="90"
           inkscape:export-ydpi="90" />
        <rect
           transform="rotate(-90)"
           style="fill:url(#linearGradient3759);fill-opacity:1;fill-rule:evenodd;stroke:none"
           id="rect3283"
           width="52.3629"
           height="52.3629"
           x="-58.1828"
           y="5.8181"
           rx="1.0664161"
           ry="1.2428099" />
        <path
           style="fill:url(#linearGradient3756);fill-opacity:1;fill-rule:evenodd;stroke:none;stroke-width:1.11351407"
           d="M 40.716944,5.8199 C 31.237299,17.380475 21.917226,32.064639 16.381224,47.237925 H 40.53272 C 41.885398,32.711335 46.541865,17.408387 52.3629,5.8199 Z"
           id="path3285"
           inkscape:connector-curvature="0"
           sodipodi:nodetypes="ccccc" />
      </g>
      <path
         style="fill:url(#linearGradient3661);fill-opacity:1;fill-rule:evenodd;stroke:none"
         d="m 49.436804,113.76553 -26.873487,-1.82057 -0.111541,-4.84521 12.023076,-2.8541 C 11.122798,81.9446 16.839676,62.832225 28.71103,49.794724 l 4.995192,5.070294 c -8.709479,10.761859 -15.063098,24.724071 5.532263,44.392504 l 2.177947,-12.016193 4.965056,-0.237033 z"
         id="path2537"
         sodipodi:nodetypes="cccccccccc"
         inkscape:connector-curvature="0" />
      <g
         id="g1210">
        <path
           style="opacity:1;fill:url(#linearGradient1205);fill-opacity:1;stroke:none;stroke-width:7.27553272;stroke-linecap:round;stroke-linejoin:round;stroke-miterlimit:4;stroke-dasharray:none;stroke-dashoffset:0;stroke-opacity:1"
           d="m 121.93359,23.267578 a 5.8355654,5.8355654 0 0 0 -5.58984,5.824219 v 2.681641 c -0.43342,2.526985 -2.84529,7.713577 -6.82422,13.265624 -4.04386,5.642639 -9.51654,11.82823 -15.382811,17.433594 -5.866268,5.605364 -12.15118,10.64789 -17.683594,14.089844 -5.532414,3.441954 -10.507293,4.929873 -12.085937,4.830078 a 5.8355654,5.8355654 0 0 0 -0.337891,-0.0098 C 62.602591,81.3757 61.182699,81.192053 59.800781,80.837891 A 5.8355654,5.8355654 0 0 0 58.287109,80.65625 c -0.03303,3.62e-4 -0.103144,-1.57e-4 -0.214843,0.002 a 5.8355654,5.8355654 0 0 0 -5.726563,5.833985 v 35.417972 a 5.8355654,5.8355654 0 0 0 5.296875,5.81054 c 2.071474,0.19213 4.413019,0.29014 6.242188,0.31836 a 5.8355654,5.8355654 0 0 0 0.08984,0.002 C 99.27379,128.04091 128.0155,99.29918 128.01562,64 c 9e-5,-1.554334 0.24211,-3.694887 -0.0293,-6.398438 l 0.0293,0.582032 V 32.554688 c 0.17152,-1.457518 0.2336,-2.991087 -0.13281,-4.691407 a 5.8355654,5.8355654 0 0 0 -5.94922,-4.595703 z"
           id="path1192" />
        <path
           sodipodi:nodetypes="ccccccccc"
           inkscape:connector-curvature="0"
           style="opacity:1;fill:url(#linearGradient1184);fill-opacity:1;stroke:none;stroke-width:7.27553272;stroke-linecap:round;stroke-linejoin:round;stroke-miterlimit:4;stroke-dasharray:none;stroke-dashoffset:0;stroke-opacity:1"
           d="M 122.1801,29.0923 C 125.38618,43.969872 81.297114,88.310239 64,87.216797 c -1.905494,-0.0095 -3.802575,-0.253499 -5.648438,-0.726563 -0.05725,6.28e-4 -0.113538,9.35e-4 -0.169921,0.002 v 35.417976 c 1.836667,0.17035 4.110623,0.26896 5.792968,0.29492 32.145735,-1e-4 58.205381,-26.058494 58.205491,-58.20423 1.1e-4,-1.942443 0.19402,-3.885322 0,-5.818054 z"
           id="path963" />
        <path
           style="opacity:0.57425741;fill:url(#linearGradient3739);fill-opacity:1;stroke:none;stroke-width:2.79592323"
           d="M 122.17969 36.054688 C 121.56578 36.826964 120.93341 37.612859 120.27344 38.417969 C 113.71963 52.787297 92.837294 74.156546 76.869141 83.078125 C 75.859765 83.85721 75.017659 84.440675 74.429688 84.736328 C 73.866511 85.236838 73.301021 85.746012 72.75 86.210938 C 76.873866 86.362195 85.060921 86.409282 89.308594 86.330078 C 96.972537 86.187174 110.04772 85.638492 117.63281 84.775391 C 117.8475 84.198358 118.50243 83.18005 119.33594 81.980469 C 121.17438 76.316543 122.17967 70.276779 122.17969 64 C 122.1798 62.057557 122.37371 60.116326 122.17969 58.183594 L 122.17969 36.054688 z "
           id="path3618" />
      </g>
    </g>
  </g>
</svg>
